ExpEYES17/UserManual/fr/rst/exp/schematics/opamp-inv.svg

<?xml version="1.0" encoding="UTF-8" standalone="no"?>
<svg
   xmlns:dc="http://purl.org/dc/elements/1.1/"
   xmlns:cc="http://creativecommons.org/ns#"
   xmlns:rdf="http://www.w3.org/1999/02/22-rdf-syntax-ns#"
   xmlns:svg="http://www.w3.org/2000/svg"
   xmlns="http://www.w3.org/2000/svg"
   xmlns:sodipodi="http://sodipodi.sourceforge.net/DTD/sodipodi-0.dtd"
   xmlns:inkscape="http://www.inkscape.org/namespaces/inkscape"
   version="1.1"
   id="opamp-inv"
   width="100%"
   height="100%"
   viewBox="-6 -6 678 464"
   sodipodi:docname="opamp-inv.svg"
   inkscape:export-filename="/home/georgesk/developpement/expeyes/expeyes/ExpEYES17/UserManual/fr/rst/exp/schematics/opamp-inv.png"
   inkscape:export-xdpi="42.729969"
   inkscape:export-ydpi="42.729969"
   inkscape:version="0.92.2 (5c3e80d, 2017-08-06)">
  <metadata
     id="metadata171">
    <rdf:RDF>
      <cc:Work
         rdf:about="">
        <dc:format>image/svg+xml</dc:format>
        <dc:type
           rdf:resource="http://purl.org/dc/dcmitype/StillImage" />
        <dc:title></dc:title>
      </cc:Work>
    </rdf:RDF>
  </metadata>
  <defs
     id="defs169" />
  <sodipodi:namedview
     pagecolor="#ffffff"
     bordercolor="#666666"
     borderopacity="1"
     objecttolerance="10"
     gridtolerance="10"
     guidetolerance="10"
     inkscape:pageopacity="0"
     inkscape:pageshadow="2"
     inkscape:window-width="1668"
     inkscape:window-height="1013"
     id="namedview167"
     showgrid="false"
     inkscape:zoom="1.5840708"
     inkscape:cx="339"
     inkscape:cy="232"
     inkscape:window-x="0"
     inkscape:window-y="0"
     inkscape:window-maximized="1"
     inkscape:current-layer="opamp-inv" />
  <desc
     id="desc2">
XCircuit Version 3.7
File &quot;opamp-inv.ps&quot; Page 1
</desc>
  <path
     style="fill:none;stroke:#000000;stroke-width:2;stroke-linecap:round;stroke-linejoin:bevel"
     inkscape:connector-curvature="0"
     id="path4"
     d="M 320,346 V 186 l 160,80 z" />
  <text
     font-size="40"
     id="text8"
     style="font-size:40px;font-family:Times;fill:#000000;stroke:none"
     x="339"
     y="224">
    <tspan
       x="327"
       y="230"
       id="tspan6">−</tspan>
  </text>
  <text
     font-size="40"
     id="text14"
     style="font-size:40px;font-family:Times;fill:#000000;stroke:none"
     x="339"
     y="316">
    <tspan
       x="328"
       y="326"
       id="tspan12">+</tspan>
  </text>
  <path
     style="fill:none;stroke:#000000;stroke-width:2;stroke-linecap:round;stroke-linejoin:bevel"
     inkscape:connector-curvature="0"
     id="path18"
     d="M 464,58 H 436" />
  <path
     style="fill:none;stroke:#000000;stroke-width:2;stroke-linecap:round;stroke-linejoin:bevel"
     inkscape:connector-curvature="0"
     id="path20"
     d="m 336,58 h 28" />
  <path
     style="fill:none;stroke:#000000;stroke-width:2;stroke-linecap:round;stroke-linejoin:bevel"
     inkscape:connector-curvature="0"
     id="path22"
     d="m 364,58 6,14 12,-28 12,28 12,-28 12,28 12,-28 6,14" />
  <path
     style="fill:none;stroke:#000000;stroke-width:2;stroke-linecap:round;stroke-linejoin:bevel"
     inkscape:connector-curvature="0"
     id="path24"
     d="M 384,218 V 154" />
  <path
     style="fill:none;stroke:#000000;stroke-width:2;stroke-linecap:round;stroke-linejoin:bevel"
     inkscape:connector-curvature="0"
     id="path26"
     d="m 384,314 v 80" />
  <path
     style="fill:none;stroke:#000000;stroke-width:2;stroke-linecap:round;stroke-linejoin:bevel"
     inkscape:connector-curvature="0"
     id="path28"
     d="m 480,266 h 64 V 58 h -80" />
  <path
     style="fill:none;stroke:#000000;stroke-width:2;stroke-linecap:round;stroke-linejoin:bevel"
     inkscape:connector-curvature="0"
     id="path30"
     d="m 336,58 h -80 v 160 h 64" />
  <path
     style="fill:none;stroke:#000000;stroke-width:2;stroke-linecap:round;stroke-linejoin:bevel"
     inkscape:connector-curvature="0"
     id="path32"
     d="M 256,218 H 228" />
  <path
     style="fill:none;stroke:#000000;stroke-width:2;stroke-linecap:round;stroke-linejoin:bevel"
     inkscape:connector-curvature="0"
     id="path34"
     d="m 128,218 h 28" />
  <path
     style="fill:none;stroke:#000000;stroke-width:2;stroke-linecap:round;stroke-linejoin:bevel"
     inkscape:connector-curvature="0"
     id="path36"
     d="m 156,218 6,14 12,-28 12,28 12,-28 12,28 12,-28 6,14" />
  <path
     style="fill:none;stroke:#000000;stroke-width:2;stroke-linecap:round;stroke-linejoin:bevel"
     inkscape:connector-curvature="0"
     id="path38"
     d="M 128,218 H 80" />
  <text
     font-size="40"
     id="text42"
     style="font-size:40px;font-family:Helvetica;fill:#000000;stroke:none"
     y="218">
    <tspan
       x="0"
       y="218"
       id="tspan40" />
  </text>
  <text
     font-size="40"
     id="text48"
     style="font-size:40px;font-family:Helvetica;fill:#000000;stroke:none"
     y="352.57999"
     x="6.9034376">
    <tspan
       x="6.9034376"
       y="352.57999"
       id="tspan46">WG</tspan>
  </text>
  <path
     style="fill:none;stroke:#000000;stroke-width:2;stroke-linecap:round;stroke-linejoin:bevel"
     inkscape:connector-curvature="0"
     id="path52"
     d="m 0,58 v 48 H 80 V 58 Z" />
  <path
     style="fill:none;stroke:#000000;stroke-width:2;stroke-linecap:round;stroke-linejoin:bevel"
     inkscape:connector-curvature="0"
     id="path54"
     d="m 0,314 v 48 h 80 v -48 z" />
  <text
     font-size="40"
     id="text58"
     style="font-size:40px;font-family:Helvetica;fill:#000000;stroke:none"
     x="19.360624"
     y="96.580002">
    <tspan
       x="19.360624"
       y="96.580002"
       id="tspan56">A1</tspan>
  </text>
  <path
     style="fill:none;stroke:#000000;stroke-width:2;stroke-linecap:round;stroke-linejoin:bevel"
     inkscape:connector-curvature="0"
     id="path62"
     d="m 592,410 v 48 h 80 v -48 z" />
  <text
     font-size="40"
     id="text66"
     style="font-size:40px;font-family:Helvetica;fill:#000000;stroke:none"
     x="608.08063"
     y="448.57999">
    <tspan
       x="608.08063"
       y="448.57999"
       id="tspan64">A2</tspan>
  </text>
  <path
     style="fill:none;stroke:#000000;stroke-width:2;stroke-linecap:round;stroke-linejoin:bevel"
     inkscape:connector-curvature="0"
     id="path70"
     d="m 544,266 h 48" />
  <path
     style="fill:none;stroke:#000000;stroke-width:2;stroke-linecap:round;stroke-linejoin:bevel"
     inkscape:connector-curvature="0"
     id="path72"
     d="M 320,314 H 288" />
  <path
     style="fill:none;stroke:#000000;stroke-width:2;stroke-linecap:round;stroke-linejoin:bevel"
     inkscape:connector-curvature="0"
     id="path74"
     d="m 144,410 v 48 h 96 v -48 z" />
  <text
     font-size="40"
     id="text78"
     style="font-size:40px;font-family:Helvetica;fill:#000000;stroke:none"
     x="147.78"
     y="448.57999">
    <tspan
       x="147.78"
       y="448.57999"
       id="tspan76">GND</tspan>
  </text>
  <text
     font-size="40"
     id="text84"
     style="font-size:40px;font-family:Helvetica;fill:#000000;stroke:none"
     x="355.3743"
     y="37.363129">
    <tspan
       x="355.3743"
       y="37.363129"
       id="tspan82">10 kΩ</tspan>
  </text>
  <text
     font-size="40"
     id="text90"
     style="font-size:40px;font-family:Helvetica;fill:#000000;stroke:none"
     x="149.48604"
     y="191.05028">
    <tspan
       x="149.48604"
       y="191.05028"
       id="tspan88">1 kΩ</tspan>
  </text>
  <text
     font-size="40"
     id="text96"
     style="font-size:40px;font-family:Helvetica;fill:#000000;stroke:none"
     x="606.0603"
     y="128.58">
    <tspan
       x="606.0603"
       y="128.58"
       id="tspan94">+V</tspan>
  </text>
  <text
     font-size="40"
     id="text102"
     style="font-size:40px;font-family:Helvetica;fill:#000000;stroke:none"
     x="476.39874"
     y="448.57999">
    <tspan
       x="476.39874"
       y="448.57999"
       id="tspan100">-V</tspan>
  </text>
  <text
     font-size="40"
     id="text108"
     style="font-size:40px;font-family:Helvetica;fill:#000000;stroke:none"
     x="288"
     y="202">
    <tspan
       x="288"
       y="202"
       id="tspan106">2</tspan>
  </text>
  <text
     font-size="40"
     id="text114"
     style="font-size:40px;font-family:Helvetica;fill:#000000;stroke:none"
     x="288"
     y="298">
    <tspan
       x="288"
       y="298"
       id="tspan112">3</tspan>
  </text>
  <text
     font-size="40"
     id="text120"
     style="font-size:40px;font-family:Helvetica;fill:#000000;stroke:none"
     x="496"
     y="250">
    <tspan
       x="496"
       y="250"
       id="tspan118">6</tspan>
  </text>
  <text
     font-size="40"
     id="text126"
     style="font-size:40px;font-family:Helvetica;fill:#000000;stroke:none"
     x="400"
     y="186">
    <tspan
       x="400"
       y="186"
       id="tspan124">7</tspan>
  </text>
  <text
     font-size="40"
     id="text132"
     style="font-size:40px;font-family:Helvetica;fill:#000000;stroke:none"
     x="400"
     y="346">
    <tspan
       x="400"
       y="346"
       id="tspan130">4</tspan>
  </text>
  <path
     style="fill:none;stroke:#000000;stroke-width:2;stroke-linecap:round;stroke-linejoin:bevel"
     inkscape:connector-curvature="0"
     id="path136"
     d="m 592,90 v 48 h 80 V 90 Z" />
  <path
     style="fill:none;stroke:#000000;stroke-width:2;stroke-linecap:round;stroke-linejoin:bevel"
     inkscape:connector-curvature="0"
     id="path138"
     d="m 464,410 v 48 h 64 v -48 z" />
  <circle
     style="fill:none;stroke:#000000;stroke-width:2;stroke-linecap:round;stroke-linejoin:bevel"
     r="16"
     id="ellipse140"
     cy="218"
     cx="64" />
  <circle
     style="fill:none;stroke:#000000;stroke-width:2;stroke-linecap:round;stroke-linejoin:bevel"
     r="16"
     id="ellipse142"
     cy="314"
     cx="208" />
  <circle
     style="fill:none;stroke:#000000;stroke-width:2;stroke-linecap:round;stroke-linejoin:bevel"
     r="16"
     id="ellipse144"
     cy="266"
     cx="608" />
  <circle
     style="fill:none;stroke:#000000;stroke-width:2;stroke-linecap:round;stroke-linejoin:bevel"
     r="16"
     id="ellipse146"
     cy="410"
     cx="384" />
  <circle
     style="fill:none;stroke:#000000;stroke-width:2;stroke-linecap:round;stroke-linejoin:bevel"
     r="16"
     id="ellipse148"
     cy="138"
     cx="384" />
  <path
     style="fill:none;stroke:#000000;stroke-width:2;stroke-linecap:round;stroke-linejoin:bevel"
     inkscape:connector-curvature="0"
     id="path150"
     d="M 288,314 H 224" />
  <path
     style="fill:none;stroke:#000000;stroke-width:2;stroke-linecap:round;stroke-linejoin:bevel"
     inkscape:connector-curvature="0"
     id="path152"
     d="m 640,410 c 1,0 48,-112 -32,-128" />
  <path
     style="fill:none;stroke:#000000;stroke-width:2;stroke-linecap:round;stroke-linejoin:bevel"
     inkscape:connector-curvature="0"
     id="path154"
     d="m 400,410 c 1,0 16,48 64,32" />
  <path
     style="fill:none;stroke:#000000;stroke-width:2;stroke-linecap:round;stroke-linejoin:bevel"
     inkscape:connector-curvature="0"
     id="path156"
     d="m 192,410 c 1,0 -48,-64 16,-80" />
  <path
     style="fill:none;stroke:#000000;stroke-width:2;stroke-linecap:round;stroke-linejoin:bevel"
     inkscape:connector-curvature="0"
     id="path158"
     d="m 48,314 c 1,0 -48,-48 16,-80" />
  <path
     style="fill:none;stroke:#000000;stroke-width:2;stroke-linecap:round;stroke-linejoin:bevel"
     inkscape:connector-curvature="0"
     id="path160"
     d="m 64,202 c 1,0 -80,-64 -32,-96" />
  <path
     style="fill:none;stroke:#000000;stroke-width:2;stroke-linecap:round;stroke-linejoin:bevel"
     inkscape:connector-curvature="0"
     id="path162"
     d="m 592,106 c 1,0 -112,-32 -192,32" />
  <text
     xml:space="preserve"
     style="font-style:normal;font-variant:normal;font-weight:normal;font-stretch:normal;font-size:21.33333397px;line-height:23px;font-family:sans-serif;-inkscape-font-specification:'sans-serif, Normal';font-variant-ligatures:normal;font-variant-caps:normal;font-variant-numeric:normal;font-feature-settings:normal;text-align:center;letter-spacing:0px;word-spacing:0px;writing-mode:lr-tb;text-anchor:middle;fill:#000000;fill-opacity:1;stroke:none;stroke-width:1px;stroke-linecap:butt;stroke-linejoin:miter;stroke-opacity:1"
     x="200.43018"
     y="176.44693"
     id="text287"><tspan
       sodipodi:role="line"
       id="tspan285"
       x="200.43018"
       y="193.4886"></tspan></text>
</svg>

<svg xmlns="http://www.w3.org/2000/svg"
   xmlns:xlink="http://www.w3.org/1999/xlink"
   version="1.1"
   id="opamp-inv" width="100%" height="100%"  viewBox="-6 -6 678 464">
<desc>
XCircuit Version 3.7
File "opamp-inv.ps" Page 1
</desc>
<g stroke="black">
<path d="M320,346 L320,186 480,266 z" fill="none" stroke-width="2" stroke-linejoin="bevel" stroke-linecap="round" stroke="#000000" />
<g transform="matrix(   1    0   -0    1 339 224)" fill="#000000" >
<text stroke="none" font-family="Times" font-size="40" ><tspan x="-12" y="6">&#8722;</tspan>
</text></g>
<g transform="matrix(   1    0   -0    1 339 316)" fill="#000000" >
<text stroke="none" font-family="Times" font-size="40" ><tspan x="-11" y="10">+</tspan>
</text></g>
<path d="M464,58 L436,58 " fill="none" stroke-width="2" stroke-linejoin="bevel" stroke-linecap="round" stroke="#000000" />
<path d="M336,58 L364,58 " fill="none" stroke-width="2" stroke-linejoin="bevel" stroke-linecap="round" stroke="#000000" />
<path d="M364,58 L370,72 382,44 394,72 406,44 418,72 430,44 436,58 " fill="none" stroke-width="2" stroke-linejoin="bevel" stroke-linecap="round" stroke="#000000" />
<path d="M384,218 L384,154 " fill="none" stroke-width="2" stroke-linejoin="bevel" stroke-linecap="round" stroke="#000000" />
<path d="M384,314 L384,394 " fill="none" stroke-width="2" stroke-linejoin="bevel" stroke-linecap="round" stroke="#000000" />
<path d="M480,266 L544,266 544,58 464,58 " fill="none" stroke-width="2" stroke-linejoin="bevel" stroke-linecap="round" stroke="#000000" />
<path d="M336,58 L256,58 256,218 320,218 " fill="none" stroke-width="2" stroke-linejoin="bevel" stroke-linecap="round" stroke="#000000" />
<path d="M256,218 L228,218 " fill="none" stroke-width="2" stroke-linejoin="bevel" stroke-linecap="round" stroke="#000000" />
<path d="M128,218 L156,218 " fill="none" stroke-width="2" stroke-linejoin="bevel" stroke-linecap="round" stroke="#000000" />
<path d="M156,218 L162,232 174,204 186,232 198,204 210,232 222,204 228,218 " fill="none" stroke-width="2" stroke-linejoin="bevel" stroke-linecap="round" stroke="#000000" />
<path d="M128,218 L80,218 " fill="none" stroke-width="2" stroke-linejoin="bevel" stroke-linecap="round" stroke="#000000" />
<g transform="matrix(   1    0   -0    1   0 218)" fill="#000000" >
<text stroke="none" font-family="Helvetica" font-size="40" ><tspan x="0" y="0"></tspan>
</text></g>
<g transform="matrix(   1    0   -0    1   0 346)" fill="#000000" >
<text stroke="none" font-family="Helvetica" font-size="40" ><tspan x="0" y="0">WG</tspan>
</text></g>
<path d="M0,58 L0,106 80,106 80,58 z" fill="none" stroke-width="2" stroke-linejoin="bevel" stroke-linecap="round" stroke="#000000" />
<path d="M0,314 L0,362 80,362 80,314 z" fill="none" stroke-width="2" stroke-linejoin="bevel" stroke-linecap="round" stroke="#000000" />
<g transform="matrix(   1    0   -0    1  16  90)" fill="#000000" >
<text stroke="none" font-family="Helvetica" font-size="40" ><tspan x="0" y="0">A1</tspan>
</text></g>
<path d="M592,410 L592,458 672,458 672,410 z" fill="none" stroke-width="2" stroke-linejoin="bevel" stroke-linecap="round" stroke="#000000" />
<g transform="matrix(   1    0   -0    1 608 442)" fill="#000000" >
<text stroke="none" font-family="Helvetica" font-size="40" ><tspan x="0" y="0">A2</tspan>
</text></g>
<path d="M544,266 L592,266 " fill="none" stroke-width="2" stroke-linejoin="bevel" stroke-linecap="round" stroke="#000000" />
<path d="M320,314 L288,314 " fill="none" stroke-width="2" stroke-linejoin="bevel" stroke-linecap="round" stroke="#000000" />
<path d="M144,410 L144,458 240,458 240,410 z" fill="none" stroke-width="2" stroke-linejoin="bevel" stroke-linecap="round" stroke="#000000" />
<g transform="matrix(   1    0   -0    1 144 442)" fill="#000000" >
<text stroke="none" font-family="Helvetica" font-size="40" ><tspan x="0" y="0">GND</tspan>
</text></g>
<g transform="matrix(   1    0   -0    1 368  26)" fill="#000000" >
<text stroke="none" font-family="Helvetica" font-size="40" ><tspan x="0" y="0">10K</tspan>
</text></g>
<g transform="matrix(   1    0   -0    1 176 186)" fill="#000000" >
<text stroke="none" font-family="Helvetica" font-size="40" ><tspan x="0" y="0">1K</tspan>
</text></g>
<g transform="matrix(   1    0   -0    1 608 122)" fill="#000000" >
<text stroke="none" font-family="Helvetica" font-size="40" ><tspan x="0" y="0">+V</tspan>
</text></g>
<g transform="matrix(   1    0   -0    1 464 442)" fill="#000000" >
<text stroke="none" font-family="Helvetica" font-size="40" ><tspan x="0" y="0">-V</tspan>
</text></g>
<g transform="matrix(   1    0   -0    1 288 202)" fill="#000000" >
<text stroke="none" font-family="Helvetica" font-size="40" ><tspan x="0" y="0">2</tspan>
</text></g>
<g transform="matrix(   1    0   -0    1 288 298)" fill="#000000" >
<text stroke="none" font-family="Helvetica" font-size="40" ><tspan x="0" y="0">3</tspan>
</text></g>
<g transform="matrix(   1    0   -0    1 496 250)" fill="#000000" >
<text stroke="none" font-family="Helvetica" font-size="40" ><tspan x="0" y="0">6</tspan>
</text></g>
<g transform="matrix(   1    0   -0    1 400 186)" fill="#000000" >
<text stroke="none" font-family="Helvetica" font-size="40" ><tspan x="0" y="0">7</tspan>
</text></g>
<g transform="matrix(   1    0   -0    1 400 346)" fill="#000000" >
<text stroke="none" font-family="Helvetica" font-size="40" ><tspan x="0" y="0">4</tspan>
</text></g>
<path d="M592,90 L592,138 672,138 672,90 z" fill="none" stroke-width="2" stroke-linejoin="bevel" stroke-linecap="round" stroke="#000000" />
<path d="M464,410 L464,458 528,458 528,410 z" fill="none" stroke-width="2" stroke-linejoin="bevel" stroke-linecap="round" stroke="#000000" />
<ellipse cx="64" cy="218" rx="16" ry="16" fill="none" stroke-width="2" stroke-linejoin="bevel" stroke-linecap="round" stroke="#000000" />
<ellipse cx="208" cy="314" rx="16" ry="16" fill="none" stroke-width="2" stroke-linejoin="bevel" stroke-linecap="round" stroke="#000000" />
<ellipse cx="608" cy="266" rx="16" ry="16" fill="none" stroke-width="2" stroke-linejoin="bevel" stroke-linecap="round" stroke="#000000" />
<ellipse cx="384" cy="410" rx="16" ry="16" fill="none" stroke-width="2" stroke-linejoin="bevel" stroke-linecap="round" stroke="#000000" />
<ellipse cx="384" cy="138" rx="16" ry="16" fill="none" stroke-width="2" stroke-linejoin="bevel" stroke-linecap="round" stroke="#000000" />
<path d="M288,314 L224,314 " fill="none" stroke-width="2" stroke-linejoin="bevel" stroke-linecap="round" stroke="#000000" />
<path d="M640,410 C641,410 688,298 608,282 " fill="none" stroke-width="2" stroke-linejoin="bevel" stroke-linecap="round" stroke="#000000" />
<path d="M400,410 C401,410 416,458 464,442 " fill="none" stroke-width="2" stroke-linejoin="bevel" stroke-linecap="round" stroke="#000000" />
<path d="M192,410 C193,410 144,346 208,330 " fill="none" stroke-width="2" stroke-linejoin="bevel" stroke-linecap="round" stroke="#000000" />
<path d="M48,314 C49,314 0,266 64,234 " fill="none" stroke-width="2" stroke-linejoin="bevel" stroke-linecap="round" stroke="#000000" />
<path d="M64,202 C65,202 -16,138 32,106 " fill="none" stroke-width="2" stroke-linejoin="bevel" stroke-linecap="round" stroke="#000000" />
<path d="M592,106 C593,106 480,74 400,138 " fill="none" stroke-width="2" stroke-linejoin="bevel" stroke-linecap="round" stroke="#000000" />
</g>
</svg>
